X:1
T:John Brown’s Body
T:John Brown’s Body
T:19th Century, possibly by John William Steffe
T:Public Domain Courtesy of the Cyber Hymnal™
C:19th Century, possibly by John William Steffe
Z:Public Domain
Z:Courtesy of the Cyber Hymnal™
%%score 1 2
L:1/8
Q:1/4=95
M:4/4
K:Bb
V:1 treble 
V:2 bass 
V:1
 [DF]>[DF] | [DF]>[DF] [DF]>[CE] [B,D]>[DF] [FB]>[Fc] | [Fd]>[Fd] [Fd]>[Ec] [DB]2 [FB]>[FA] | %3
 [EG]>[EG] [EG]>[FA] [GB]>[FA] [GB]>[EG] | [DF]>[EG] [DF]>[B,D] [DF]2 [DF]>[DF] | %5
 [DF]>[DF] [DF]>[CE] [B,D]>[DF] [FB]>[Fc] | [Fd]>[Fd] [Fd]>[Ec] [DB]2 [FB]2 | %7
 [Gc]2 [Gc]2 [FB]2 [EA]2 | [DB]8 | [DF]3 [CE] [B,D]>[DF] [FB]>[Fc] | [Fd]4 [FB]4 | %11
 [EG]3 [FA] [GB]>[FA] [GB]>[EG] | [DF]4 [B,D]4 | [DF]3 [CE] [B,D]>[DF] [FB]>[Fc] | %14
 [Fd]4 [FB]2 [FB]2 | [Gc]2 [Gc]2 [FB]2 [EA]2 | [DB]8 |] %17
V:2
 [B,,B,]>[B,,B,] | [B,,B,]>[B,,B,] [B,,B,]>[B,,F,] [B,,F,]>[B,,B,] [D,B,]>[F,A,] | %2
 B,>B, [F,B,]>[F,A,] [B,,B,]2 [D,B,]>[D,B,] | %3
 [E,B,]>[E,B,] [E,B,]>[E,B,] [E,E]>[E,E] [E,E]>[E,B,] | %4
 [B,,B,]>[B,,B,] [B,,B,]>[B,,F,] [B,,B,]2 [B,,B,]>[B,,B,] | %5
 [B,,B,]>[B,,B,] [B,,B,]>[B,,F,] [B,,F,]>[B,,B,] [D,B,]>[F,A,] | %6
 B,>B, [F,B,]>[F,A,] [B,,B,]2 [D,B,]2 | [E,B,]2 [E,E]2 [F,D]2 [F,C]2 | [B,,B,]8 | %9
 [B,,B,]3 [B,,F,] [B,,F,]>[B,,B,] [D,B,]>[F,A,] | B,4 [D,B,]4 | %11
 [E,B,]3 [E,B,] [E,B,]>[E,B,] [E,B,]>[E,B,] | [B,,B,]4 [B,,F,]4 | %13
 [B,,B,]3 [B,,F,] [B,,F,]>[B,,B,] [D,B,]>[F,A,] | B,4 [D,B,]2 [D,B,]2 | %15
 [E,B,]2 [E,E]2 [F,D]2 [F,C]2 | [B,,B,]8 |] %17

